assets/svgs/extras/food-drink/FoodDrink6.svg

<svg id="emoji" viewBox="0 0 72 72" xmlns="http://www.w3.org/2000/svg">
  <g id="line-supplement">
    <path fill="none" stroke="#000" stroke-linecap="round" stroke-width="2" d="M45 42H26"/>
    <path fill="none" stroke="#000" stroke-linecap="round" stroke-width="2" d="M45 24H25.5"/>
    <path fill="none" stroke="#000" stroke-linecap="round" stroke-width="2" d="M45.5 17H25.1393"/>
  </g>
  <g id="color">
    <path fill="#fff" fill-rule="evenodd" d="M22.0341 13.0331C22.0154 12.4681 22.4683 12 23.0335 12H47.9632C48.5296 12 48.9829 12.47 48.9625 13.036L48.8557 16H48.8559L47.3396 58.072C47.3008 59.1479 46.4174 60 45.3408 60H25.5232C24.4444 60 23.56 59.1444 23.5243 58.0661L22.1324 16H22.1322L22.0341 13.0331Z" clip-rule="evenodd"/>
    <path fill="#A57939" d="M24.0372 17.0359C24.0169 16.4699 24.4702 16 25.0365 16H45.9637C46.5299 16 46.9832 16.4698 46.963 17.0357L45.5694 56.0714C45.531 57.1475 44.6475 58 43.5707 58H26.4727C25.9344 58 25.4927 57.5739 25.4734 57.0359L24.0372 17.0359Z"/>
    <path fill="#6A462F" fill-rule="evenodd" d="M46.1075 41H24.8976L24.0372 17.0359C24.0169 16.4699 24.4702 16 25.0366 16H45.9637C46.53 16 46.9833 16.4698 46.963 17.0357L46.1075 41Z" clip-rule="evenodd"/>
    <path fill="#fff" fill-rule="evenodd" d="M46.7501 23H24.2514L24.0372 17.0359C24.0169 16.4699 24.4702 16 25.0366 16H45.9637C46.53 16 46.9833 16.4698 46.963 17.0357L46.7501 23Z" clip-rule="evenodd"/>
  </g>
  <g id="line">
    <path fill="#000" d="M22.0341 13.0331L21.0346 13.0661L22.0341 13.0331ZM48.9625 13.036L47.9632 13V13L48.9625 13.036ZM48.8557 16L47.8564 15.964L47.819 17H48.8557V16ZM48.8559 16L49.8552 16.036L49.8926 15H48.8559V16ZM47.3396 58.072L48.3389 58.108L47.3396 58.072ZM23.5243 58.0661L22.5248 58.0992L23.5243 58.0661ZM22.1324 16L23.1318 15.9669L23.0998 15H22.1324V16ZM22.1322 16L21.1328 16.0331L21.1648 17H22.1322V16ZM23.0335 11C21.903 11 20.9972 11.9363 21.0346 13.0661L23.0335 13V13V11ZM47.9632 11H23.0335V13H47.9632V11ZM49.9619 13.072C50.0027 11.94 49.096 11 47.9632 11V13V13L49.9619 13.072ZM49.8551 16.036L49.9619 13.072L47.9632 13L47.8564 15.964L49.8551 16.036ZM48.8557 17H48.8559V15H48.8557V17ZM47.8565 15.964L46.3402 58.036L48.3389 58.108L49.8552 16.036L47.8565 15.964ZM46.3402 58.036C46.3208 58.5739 45.8791 59 45.3408 59V61C46.9557 61 48.2807 59.7218 48.3389 58.108L46.3402 58.036ZM45.3408 59H25.5232V61H45.3408V59ZM25.5232 59C24.9838 59 24.5416 58.5722 24.5237 58.0331L22.5248 58.0992C22.5783 59.7166 23.9049 61 25.5232 61V59ZM24.5237 58.0331L23.1318 15.9669L21.1329 16.0331L22.5248 58.0992L24.5237 58.0331ZM22.1322 17H22.1324V15H22.1322V17ZM21.0346 13.0661L21.1328 16.0331L23.1317 15.9669L23.0335 13L21.0346 13.0661Z"/>
    <path fill="none" stroke="#000" stroke-linecap="round" stroke-width="2" d="M34 57H43.5351C44.0735 57 44.5152 56.5737 44.5344 56.0357L46 15"/>
  </g>
</svg>

<svg xmlns="http://www.w3.org/2000/svg" viewBox="0 0 72 72"><g fill="none" stroke="#000" stroke-linecap="round" stroke-width="2"><path d="M45 42H26M45 24H25.5M45.5 17H25.14"/></g><path fill="#fff" fill-rule="evenodd" d="M22.034 13.033a1 1 0 011-1.033h24.93a1 1 0 01.998 1.036L48.856 16 47.34 58.072a2 2 0 01-2 1.928H25.524a2 2 0 01-1.999-1.934L22.132 16l-.098-2.967z" clip-rule="evenodd"/><path fill="#A57939" d="M24.037 17.036a1 1 0 011-1.036h20.927a1 1 0 01.999 1.036L45.569 56.07A2 2 0 0143.571 58H26.473a1 1 0 01-1-.964l-1.436-40z"/><path fill="#6A462F" fill-rule="evenodd" d="M46.108 41h-21.21l-.86-23.964A1 1 0 0125.036 16h20.927a1 1 0 01.999 1.036L46.108 41z" clip-rule="evenodd"/><path fill="#fff" fill-rule="evenodd" d="M46.75 23H24.251l-.214-5.964a1 1 0 011-1.036h20.927a1 1 0 01.999 1.036L46.75 23z" clip-rule="evenodd"/><g><path d="M22.034 13.033l-1 .033 1-.033zm26.928.003L47.963 13l1 .036zM48.856 16l-1-.036L47.82 17h1.037v-1zm0 0l1 .036.037-1.036h-1.037v1zM47.34 58.072l.999.036-1-.036zm-23.816-.006l-1 .033 1-.033zM22.132 16l1-.033L23.1 15h-.968v1zm0 0l-1 .033.033.967h.967v-1zm.901-5a2 2 0 00-1.998 2.066L23.033 13v-2zm24.93 0h-24.93v2h24.93v-2zm1.999 2.072A2 2 0 0047.963 11v2l1.999.072zm-.107 2.964l.107-2.964L47.963 13l-.107 2.964 2 .072zm-1 .964v-2 2zm-.998-1.036L46.34 58.036l1.999.072 1.516-42.072-1.998-.072zM46.34 58.036a1 1 0 01-1 .964v2a3 3 0 002.999-2.892l-1.999-.072zm-1 .964H25.524v2h19.818v-2zm-19.817 0a1 1 0 01-1-.967l-1.998.066A3 3 0 0025.523 61v-2zm-1-.967l-1.391-42.066-2 .066L22.526 58.1l1.999-.066zM22.134 17v-2 2zm-1.098-3.934l.098 2.967 1.999-.066L23.033 13l-1.998.066z"/><path fill="none" stroke="#000" stroke-linecap="round" stroke-width="2" d="M34 57h9.535a1 1 0 001-.964L46 15"/></g></svg>
